Obsidian-SemiLight/actions/22s/show-node-handles.svg

<svg viewBox="0 0 22 22" xmlns="http://www.w3.org/2000/svg"><path d="m16 4v.9980469a11.559518 11 0 0 0 -.113281 0v.0019531a11.559518 11 0 0 0 -11.386719 10h1.046875a10.508653 10 0 0 1 10.349609-9 10.508653 10 0 0 1 .103516 0v1h3v-3zm1 1h1v1h-1z" fill="#4d4d4d"/><path d="m4.9804688 3a2 2 0 0 0 -1.9804688 2.0136719 2 2 0 0 0 1.5 1.921875v2.0644531h1v-2.0664062a2 2 0 0 0 1.5-1.9335938v-.0253906a2 2 0 0 0 -2.0195312-1.9746094zm.0097656 1a1 1 0 0 1 1.0097656.9863281v.0136719a1 1 0 0 1 -.9960938 1 1 1 0 0 1 -1.0039062-.9941406 1 1 0 0 1 .9902344-1.0058594zm-.4902344 6v1h1v-1zm-1.5 5v4h4v-4zm1 1h2v2h-2z" fill="#3daee9"/></svg>

<svg xmlns="http://www.w3.org/2000/svg" viewBox="0 0 22 22">
  <defs id="defs3051">
    <style type="text/css" id="current-color-scheme">
      .ColorScheme-Text {
        color:#4d4d4d;
      }
      .ColorScheme-Highlight {
        color:#3daee9;
      }
      </style>
  </defs>
 <path 
     style="fill:currentColor;fill-opacity:1;stroke:none" 
     d="M 16 4 L 16 4.9980469 A 11.559518 11 0 0 0 15.886719 4.9980469 L 15.886719 5 A 11.559518 11 0 0 0 4.5 15 L 5.546875 15 A 10.508653 10 0 0 1 15.896484 6 A 10.508653 10 0 0 1 16 6 L 16 7 L 19 7 L 19 4 L 16 4 z M 17 5 L 18 5 L 18 6 L 17 6 L 17 5 z "
     class="ColorScheme-Text"
     />
 <path 
     style="fill:currentColor;fill-opacity:1;stroke:none" 
     d="M 4.9804688 3 A 2 2 0 0 0 3 5.0136719 A 2 2 0 0 0 4.5 6.9355469 L 4.5 9 L 5.5 9 L 5.5 6.9335938 A 2 2 0 0 0 7 5 L 7 4.9746094 A 2 2 0 0 0 4.9804688 3 z M 4.9902344 4 A 1 1 0 0 1 6 4.9863281 L 6 5 A 1 1 0 0 1 5.0039062 6 A 1 1 0 0 1 4 5.0058594 A 1 1 0 0 1 4.9902344 4 z M 4.5 10 L 4.5 11 L 5.5 11 L 5.5 10 L 4.5 10 z M 3 15 L 3 19 L 7 19 L 7 15 L 3 15 z M 4 16 L 6 16 L 6 18 L 4 18 L 4 16 z "
     class="ColorScheme-Highlight"
     />
</svg>
